public/img/svg/icons8-instagram.svg

<svg fill="#fff" xmlns="http://www.w3.org/2000/svg"  viewBox="0 0 26 26" width="26px" height="26px"><path d="M 7.546875 0 C 3.390625 0 0 3.390625 0 7.546875 L 0 18.453125 C 0 22.609375 3.390625 26 7.546875 26 L 18.453125 26 C 22.609375 26 26 22.609375 26 18.453125 L 26 7.546875 C 26 3.390625 22.609375 0 18.453125 0 Z M 7.546875 2 L 18.453125 2 C 21.527344 2 24 4.46875 24 7.546875 L 24 18.453125 C 24 21.527344 21.53125 24 18.453125 24 L 7.546875 24 C 4.472656 24 2 21.53125 2 18.453125 L 2 7.546875 C 2 4.472656 4.46875 2 7.546875 2 Z M 20.5 4 C 19.671875 4 19 4.671875 19 5.5 C 19 6.328125 19.671875 7 20.5 7 C 21.328125 7 22 6.328125 22 5.5 C 22 4.671875 21.328125 4 20.5 4 Z M 13 6 C 9.144531 6 6 9.144531 6 13 C 6 16.855469 9.144531 20 13 20 C 16.855469 20 20 16.855469 20 13 C 20 9.144531 16.855469 6 13 6 Z M 13 8 C 15.773438 8 18 10.226563 18 13 C 18 15.773438 15.773438 18 13 18 C 10.226563 18 8 15.773438 8 13 C 8 10.226563 10.226563 8 13 8 Z"/></svg>

<svg xmlns="http://www.w3.org/2000/svg" width="26" height="26"><path d="M7.547 0C3.39 0 0 3.39 0 7.547v10.906C0 22.61 3.39 26 7.547 26h10.906C22.61 26 26 22.61 26 18.453V7.547C26 3.39 22.61 0 18.453 0zm0 2h10.906A5.53 5.53 0 0124 7.547v10.906A5.53 5.53 0 0118.453 24H7.547A5.53 5.53 0 012 18.453V7.547A5.53 5.53 0 017.547 2zM20.5 4a1.5 1.5 0 100 3 1.5 1.5 0 000-3zM13 6c-3.855 0-7 3.145-7 7s3.145 7 7 7 7-3.145 7-7-3.145-7-7-7zm0 2c2.773 0 5 2.227 5 5s-2.227 5-5 5-5-2.227-5-5 2.227-5 5-5z"/></svg>
